!!!COM: Anonymous
!!!CDT: [?]
!!!OTL@@POL: Najwyższa Matko
!!!TXO: Polish
!!!ODT: 
!!!GTL: Hymnbook E
!!!ARL: Opactwo św. Wojciecha, Staniątki 
!!!voices:	3
**kern	**text	**kern	**text	**kern	**text
*staff3	*staff3	*staff2	*staff2	*staff1	*staff1
*I"Basso	*	*I"Canto II	*	*I"Canto I	*
=1-	=1-	=1-	=1-	=1-	=1-
*clefF4	*	*clefG2	*	*clefG2	*
*k[b-]	*	*k[b-]	*	*k[b-]	*
*M3/2	*	*M3/2	*	*M3/2	*
2G\	Naj-	2g/	Naj-	2g/	Naj-
2G\	-wyż-	2g/	-wyż-	2b-\	-wyż-
2F\	-sza	2a/	-sza	2cc\	-sza
=2	=2	=2	=2	=2	=2
1BB-	Ma-	1b-	Ma-	1dd	Ma-
2F\	-tko	2a/	-tko	2cc\	-tko
=3	=3	=3	=3	=3	=3
2.G\	wcie-	2.g/	wcie-	2.b-\	wcie-
4G\	-lo-	4g/	-lo-	4b-\	-lo-
2C/	-ne-	2e/	-ne-	2cc\	-ne-
=4	=4	=4	=4	=4	=4
2G\	-go	2g/	-go	2b-\	-go
1D	Bo-	2.g/	Bo-	1a	Bo-
.	.	4f#/	.	.	.
=5	=5	=5	=5	=5	=5
1.GG	-ga	1.g	-ga	1.g	-ga
=6	=6	=6	=6	=6	=6
2G\	Na	2bn\	Na	2dd\	Na
2G\	Cię	2b\	Cię	2dd\	Cię
2E\	nie	2cc#\	nie	2ee\	nie
=7	=7	=7	=7	=7	=7
1D	pad-	1dd	pad-	1ff	pad-
2A\	-ła	2cc#\	-ła	2ee\	-ła
=8	=8	=8	=8	=8	=8
2.B-\	żad-	2.dd\	żad-	2.dd\	żad-
4A\	-na	4cc\	-na	4dd\	-na
2G\	grze-	2bn\	grze-	2gg\	grze-
=9	=9	=9	=9	=9	=9
2D\	-chu	2dd\	-chu	2ff\	-chu
1A	trwo-	2.dd\	trwo-	1ee	trwo-
.	.	4cc#\	.	.	.
=10	=10	=10	=10	=10	=10
1.D	-ga	1.dd	-ga	1.dd	-ga
=11||	=11||	=11||	=11||	=11||	=11||
2BB-/	Broń	2dd\	Broń	2ff\	Broń
2C/	nas	2cc\	nas	2ee-\	nas
2D\	od	2b-\	od	2dd\	od
=12	=12	=12	=12	=12	=12
1F	grze-	2.b-\	grze-	1cc	grze-
.	.	4a/	.	.	.
2BB-/	-chu	2b-\	-chu	2b-\	-chu
=13	=13	=13	=13	=13	=13
2.F\	nie-	2.a/	nie-	2.cc\	nie-
4D\	-win-	4b-\	-win-	4dd\	-win-
2E-\	-nie	2g/	-nie	2ee-\	-nie
=14	=14	=14	=14	=14	=14
2BB-/	po-	2b-\	po-	2dd\	po-
2F\	-czę-	2.b-\	-czę-	1cc	-czę-
2FF/	.	.	.	.	.
.	.	4a/	.	.	.
=15	=15	=15	=15	=15	=15
1.BB-	-ta	1.b-	-ta	1.dd	-ta
=16	=16	=16	=16	=16	=16
1F	Pa-	1a	Pa-	1cc	Pa-
2D\	-nien-	2b-\	-nien-	2dd\	-nien-
=17	=17	=17	=17	=17	=17
2E-\	-ko	2g/	-ko	2b-\	-ko
2C/	świę-	2g/	świę-	1a	świę-
2D\	.	2f#/	.	.	.
=18	=18	=18	=18	=18	=18
1.GG	-ta.	1.g	-ta.	1.g	-ta.
==	==	==	==	==	==
*-	*-	*-	*-	*-	*-
!!!GTL: Hymnbook E
!!!EFL: 94/117
!!!YEM: Creative Commons CC/BY/NC/SA 4.0
!!!ENC: Marcin Konik
!!!END: 
!!!EED: Marcin Konik
!!!EEV: 
!!!ONB: Translated from MusicXML and edited by Marcin Konik
!!!CharacterEncoding: utf-8
!!!RDF**kern: l=long note in original notation
!!!RDF**kern: i=editorial accidental
!!muse2ps: z14jc180F
